media/icons/happyhour.svg

<?xml version="1.0" encoding="utf-8"?>
<!-- Generator: Adobe Illustrator 14.0.0, SVG Export Plug-In . SVG Version: 6.00 Build 43363)  -->
<!DOCTYPE svg PUBLIC "-//W3C//DTD SVG 1.1//EN" "http://www.w3.org/Graphics/SVG/1.1/DTD/svg11.dtd">
<svg version="1.1" id="Capa_1" xmlns="http://www.w3.org/2000/svg" xmlns:xlink="http://www.w3.org/1999/xlink" x="0px" y="0px"
	 width="20px" height="20px" viewBox="0 0 20 20" enable-background="new 0 0 20 20" xml:space="preserve">
<g id="keyboard-alt">
	<path d="M13.5,9C14.301,9,15,8.3,15,7.5S14.301,6,13.5,6C12.701,6,12,6.7,12,7.5S12.701,9,13.5,9z M6.5,9C7.3,9,8,8.3,8,7.5
		S7.3,6,6.5,6S5,6.7,5,7.5S5.7,9,6.5,9z M10,16c2.599,0,4.8-1.699,5.701-4H4.3C5.2,14.301,7.4,16,10,16z M10,0C4.5,0,0,4.5,0,10
		c0,5.502,4.5,10,10,10c5.5,0,10-4.498,10-10C20,4.5,15.5,0,10,0z M10,18c-4.4,0-8-3.6-8-8c0-4.399,3.6-8,8-8c4.4,0,8,3.601,8,8
		C18,14.4,14.4,18,10,18z"/>
</g>
</svg>

<?xml version="1.0" encoding="UTF-8" standalone="no"?>
<!-- Created with Inkscape (http://www.inkscape.org/) -->

<svg
   xmlns:dc="http://purl.org/dc/elements/1.1/"
   xmlns:cc="http://creativecommons.org/ns#"
   xmlns:rdf="http://www.w3.org/1999/02/22-rdf-syntax-ns#"
   xmlns:svg="http://www.w3.org/2000/svg"
   xmlns="http://www.w3.org/2000/svg"
   version="1.1"
   width="20"
   height="20"
   viewBox="0 0 20 20"
   id="Capa_1"
   xml:space="preserve"><metadata
   id="metadata10"><rdf:RDF><cc:Work
       rdf:about=""><dc:format>image/svg+xml</dc:format><dc:type
         rdf:resource="http://purl.org/dc/dcmitype/StillImage" /><dc:title></dc:title></cc:Work></rdf:RDF></metadata><defs
   id="defs8" />
<g
   id="keyboard-alt">
	<path
   d="M 13.5,9 C 14.301,9 15,8.3 15,7.5 15,6.7 14.301,6 13.5,6 12.701,6 12,6.7 12,7.5 12,8.3 12.701,9 13.5,9 z m -7,0 C 7.3,9 8,8.3 8,7.5 8,6.7 7.3,6 6.5,6 5.7,6 5,6.7 5,7.5 5,8.3 5.7,9 6.5,9 z m 3.5,7 c 2.599,0 4.8,-1.699 5.701,-4 H 4.3 c 0.9,2.301 3.1,4 5.7,4 z M 10,0 C 4.5,0 0,4.5 0,10 0,15.502 4.5,20 10,20 15.5,20 20,15.502 20,10 20,4.5 15.5,0 10,0 z m 0,18 C 5.6,18 2,14.4 2,10 2,5.601 5.6,2 10,2 c 4.4,0 8,3.601 8,8 0,4.4 -3.6,8 -8,8 z"
   id="path4" />
</g>
</svg>
